icons/linear-new-symbol-arrow-right-import-line.svg

<svg xmlns="http://www.w3.org/2000/svg" width="32px" height="32px" viewBox="0 0 32 32" version="1.1">
    <title>linear-new-symbol-arrow-right-import-line</title>
    <g id="linear-new-symbol-arrow-right-import-line" stroke-width="1" fill-rule="evenodd">
        <path d="M10.7071068,6.29289322 L19.7071068,15.2928932 C19.7425008,15.3282873 19.774687,15.3656744 19.8036654,15.4046934 L19.8753288,15.5159379 L19.9287745,15.628664 L19.9641549,15.734007 L19.9930928,15.8819045 L20,16 L19.9972121,16.0752385 L19.9797599,16.2007258 L19.9502619,16.3121425 L19.9063266,16.4232215 L19.8540045,16.5207088 L19.7803112,16.625449 L19.7071068,16.7071068 L10.7071068,25.7071068 C10.3165825,26.0976311 9.68341751,26.0976311 9.29289322,25.7071068 C8.90236893,25.3165825 8.90236893,24.6834175 9.29289322,24.2928932 L16.585,17 L4,17 C3.44771525,17 3,16.5522847 3,16 C3,15.4477153 3.44771525,15 4,15 L16.585,15 L9.29289322,7.70710678 C8.93240926,7.34662282 8.90467972,6.77939176 9.20970461,6.38710056 L9.29289322,6.29289322 C9.68341751,5.90236893 10.3165825,5.90236893 10.7071068,6.29289322 Z M26,4 C26.5522847,4 27,4.44771525 27,5 L27,27 C27,27.5522847 26.5522847,28 26,28 C25.4477153,28 25,27.5522847 25,27 L25,5 C25,4.44771525 25.4477153,4 26,4 Z" id="&#24418;&#29366;" fill-rule="nonzero" />
    </g>
</svg>

<svg xmlns="http://www.w3.org/2000/svg" viewBox="0 0 32 32"><path fill="currentColor" d="m10.707 6.293 9 9c.036.035.068.073.097.112l.071.11.054.114.035.105.03.148L20 16l-.003.075-.017.126-.03.111-.044.111-.052.098-.074.104-.073.082-9 9a1 1 0 1 1-1.414-1.414L16.585 17H4a1 1 0 0 1 0-2h12.585L9.293 7.707a1 1 0 0 1-.083-1.32l.083-.094a1 1 0 0 1 1.414 0M26 4a1 1 0 0 1 1 1v22a1 1 0 0 1-2 0V5a1 1 0 0 1 1-1"/></svg>
